icons/desktop/12/svg/warning-fill-12.svg

<svg width="12" height="12" viewBox="0 0 12 12" fill="none" xmlns="http://www.w3.org/2000/svg">
<path d="M9.36697 7.60301L6.83997 3.26401C6.46497 2.62001 5.53497 2.62001 5.15997 3.26401L2.63397 7.60201C2.28197 8.20701 2.66097 8.97301 3.35597 9.05801C4.15397 9.15501 5.03997 9.21901 5.99997 9.21901C6.77797 9.21901 7.67197 9.17701 8.65697 9.05701C9.34397 8.97301 9.71497 8.20101 9.36697 7.60301Z" fill="black"/>
<path d="M4.37051 2.64236C5.14758 1.4941 6.85219 1.49416 7.6293 2.64236L7.7045 2.76052L10.2309 7.09939V7.10036C10.929 8.3001 10.1998 9.87558 8.77872 10.0496H8.77774C7.74868 10.1749 6.81425 10.2195 6.0004 10.2195C4.99609 10.2195 4.06937 10.1519 3.23575 10.0506H3.23477C1.82452 9.87808 1.05808 8.3219 1.76993 7.09841L4.2963 2.76052L4.37051 2.64236ZM6.84024 3.26443C6.46524 2.62043 5.53458 2.62043 5.15958 3.26443L2.63419 7.60232C2.28234 8.20727 2.66098 8.97332 3.35587 9.05837C3.95444 9.13113 4.60265 9.18524 5.29434 9.20779L6.0004 9.2195C6.58387 9.21949 7.23255 9.19503 7.93594 9.13259L8.65665 9.05739C9.34364 8.9734 9.71458 8.20129 9.36661 7.60329L6.84024 3.26443Z" fill="white"/>
</svg>

<!-- This Source Code Form is subject to the terms of the Mozilla Public
   - License, v. 2.0. If a copy of the MPL was not distributed with this
   - file, You can obtain one at http://mozilla.org/MPL/2.0/. -->
<svg xmlns="http://www.w3.org/2000/svg" width="12" height="12" fill="context-fill" fill-opacity="context-fill-opacity" viewBox="0 0 12 12">
    <path d="M9.367 7.603 6.84 3.264a.972.972 0 0 0-1.68 0L2.634 7.602a.972.972 0 0 0 .722 1.456 22 22 0 0 0 5.301-.001c.687-.084 1.058-.856.71-1.454" />
    <path d="M4.37 2.642c.778-1.148 2.482-1.148 3.26 0l.075.119 2.526 4.338V7.1c.698 1.2-.031 2.776-1.452 2.95h-.001a22.907 22.907 0 0 1-5.542.001h-.001A1.973 1.973 0 0 1 1.77 7.098l2.526-4.337zm2.47.622a.973.973 0 0 0-1.68 0L2.634 7.602a.972.972 0 0 0 .722 1.456c.598.073 1.247.127 1.938.15L6 9.219c.584 0 1.233-.024 1.936-.086l.72-.076c.688-.084 1.059-.856.71-1.454z" />
</svg>
